X: 1
T:GEORGE KING'S HORNPIPE, 1st setting
B:John of the Greeny Cheshire Way
N: John Offord, Reproduced with permission
M:3/2
L:1/8
K:D
P:1
C2 E4 A2 c4 | E2 E4 DC DEFD |\
C2 E4 A2 B3 c | d2 d4 AG F2 ED ||
P:2
e2 c2 A2 e2 c3 d | e2 c2 A2 e2 fgaf |\
e2 c2 A2 e2 c2 BA | d2 d4 A2 F2 D2||
P:3
g4 a2 fd ge c2 | e2 e4 E2 F3 A |\
g4 af d2 ge c2 | d2 d4 D2 F3 A ||
P:4
efec ABcd efec | e2 e2 c2 g2 f2 d2 |\
efec ABcd efec | f2 f2 d2 g2 f2 ed ||
P:5
e3 c a3 c e3 c | a3 c e3 c defd |\
e3 c a3 c e3 c | f3 d a3 d f3 d ||
P:6
efec ABcd efec | efec efec BcdB |\
efec ABcd efec | defd efge fgaf ||
P:7
efec efec efec | efec efec BcdB |\
efec ABcd efec | defd efge fgaf ||
P:8
E2 FG AEFG AEFG | AEFG AEFG F2 ED |\
E2 FG AEFG AEFG | AGFE D2 A2 F2 D2 ||
P:9
C2 E2 GEGE C4 | E2 E4 DC DEFD |\
C2 E2 GEGE C4 | D2 D4 A2 F2 ED||
P:10
E3 C A3 C E3 C | A3 C E3 C DEFD |\
E3 C A3 C E3 C | F3 D A3 D F3 D ||
P:11
E2 C2 A,2 A2 C2 A,2 | A2 C2 A,2 A2 DEFD |\
E2 C2 A,2 A2 C2 A,2 | A2 F2 D2 A2 F2 D2 |]
